X:56
T:Every Man in his Humour
M:6/8
L:1/8
B:Thompson's Compleat Collection of 200 Favourite Country Dances, vol. 1 (London, 1757)
Z:Transcribed and edited by Fynnian Titford-Mock, 2007
Z:abc's:AK/Fiddler's Companion
K:A
(c/d/e2) (d/e/f2)|ecA (B/c/d)B|(c/d/e)c (d/e/f)d|e>dc/B/ A3::(c/d/e)e efg|aga aed|
(c/d/e)c (d/e/f)d|ecA Bcd|efg aga|ecA "tr"B3|(c/d/e2) (d/e/f2)|e>dc/B/ A3:|

